X:1
T:Title
%%score 1 { 2 | 3 }
L:1/8
Q:1/4=108
M:3/4
K:C
V:1 treble nm="Grand Piano, Unnamed-000"
V:2 bass nm="Choir Pad, Boylston, SM"
V:3 bass 
V:1
 [EG]2 [CE][DF] [EG]2 | [FA]2 [EG]4 | [Ec]2 [^Fc][DB] [EA]2 | [DA]2 [DG]4 | [EG]2 [CE][CF] [CG]2 | %5
w: By~Lowell~Mason,~1832 * * *|||||
 [EG]2 [FA][FB] [Ec]2 | [DB]2 [Cc][FA] [DG]2 | [FG]2 [EG]4- | [EG]4 z2 |] %9
w: ||||
V:2
 G,2 G,G, G,C | C2 C4 | C2 A,G,[K:bass] G,2 | ^F,C B,4 | C2 G,G, G,2 | C2 CG, G,2 | %6
 G,2 G,[K:treble]C C2 | B,2 C4- | C4 z2 |] %9
V:3
 C,2 C,C, C,2 | F,2 C,4 | C,2 .D,2 C,2 | D,2 G,4 | C,2 C,D, E,2 | C,2 F,D, C,2 | z2 E,F, G,2 | %7
 G,,2 C,4- | C,4 z2 |] %9

